src/pos-icons/guy-fawkes-mask.svg

<svg height="24" viewBox="0 0 24 24" width="24" xmlns="http://www.w3.org/2000/svg"><path d="m21 13a9 9 0 0 1 -9 9 9 9 0 0 1 -9-9l.03-8.57c2.65-1.55 5.73-2.43 9.02-2.43 3.25 0 6.31.87 8.95 2.38zm-8 6.93c3.39-.49 6-3.43 6-6.93v-7.41c-2.1-1.02-4.46-1.59-6.95-1.59-2.55 0-4.97.6-7.11 1.66l.06 7.34c0 3.5 2.63 6.44 6 6.93v-1.93h2zm-2-3.93h-3l-2-3 3 1h1l1-1h2l1 1h1l3-1-2 3h-3l-1-1zm-5-6.97c.64-.63 1.5-.98 2.5-.98.95 0 1.84.35 2.5.98-.66.62-1.55.97-2.5.97-1 0-1.86-.35-2.5-.97m7 0c.64-.63 1.5-.98 2.5-.98.95 0 1.84.35 2.5.98-.66.62-1.55.97-2.5.97-1 0-1.86-.35-2.5-.97z"/></svg>

<?xml version="1.0" encoding="UTF-8"?><!DOCTYPE svg PUBLIC "-//W3C//DTD SVG 1.1//EN" "http://www.w3.org/Graphics/SVG/1.1/DTD/svg11.dtd"><svg xmlns="http://www.w3.org/2000/svg" xmlns:xlink="http://www.w3.org/1999/xlink" version="1.1" id="mdi-guy-fawkes-mask" width="24" height="24" viewBox="0 0 24 24"><path d="M21,13A9,9 0 0,1 12,22A9,9 0 0,1 3,13L3.03,4.43C5.68,2.88 8.76,2 12.05,2C15.3,2 18.36,2.87 21,4.38V13M13,19.93C16.39,19.44 19,16.5 19,13V5.59C16.9,4.57 14.54,4 12.05,4C9.5,4 7.08,4.6 4.94,5.66L5,13C5,16.5 7.63,19.44 11,19.93V18H13V19.93M11,16H8L6,13L9,14H10L11,13H13L14,14H15L18,13L16,16H13L12,15L11,16M6,9.03C6.64,8.4 7.5,8.05 8.5,8.05C9.45,8.05 10.34,8.4 11,9.03C10.34,9.65 9.45,10 8.5,10C7.5,10 6.64,9.65 6,9.03M13,9.03C13.64,8.4 14.5,8.05 15.5,8.05C16.45,8.05 17.34,8.4 18,9.03C17.34,9.65 16.45,10 15.5,10C14.5,10 13.64,9.65 13,9.03Z" /></svg>
